X: 2
T: AIR: Mountains of Pomeroy
C: C: Trad.; S: Séamus Begley; Noel Hill
C: Set Leaders: Tania, Anton, Sophie
Z: Anton Zille ed., Oleg Naumov arr.; Bregolas at The Session
N: https://thesession.org/members/26966/sets/92425
R: Air
M: 4/4
L: 1/8
Q: 1/2=40
K: Gmaj
B>c|"G"d2 de d>c BA|"G"G2 A>G "C"E2 G>E|"G"D3E G2 A>B|"C"c6 "D"B>c|
"G"d2 de d>c BA|"G"G2 A>G "C"E2 G>E|"G"D3E "C"G2 "D"A>G|"G"G6 G>A||
"G"B2 A>B G2 A>B|"C"c2 d2 "D"d2 g>e|"G"d>c BA "Em"G2 A>B|"C"c6 "D"B>c|
"G"d2 de d>c BA|"G"G2 A>G "C"E2 G>E|"G"D2 E2"C" G2 "D"A>G|"G"G8||

